X:1
T:Title
%%score { 1 | ( 2 3 ) }
L:1/8
M:3/4
K:Ab
V:1 treble nm="Grand Piano"
V:2 bass 
V:3 bass 
V:1
 z2 z2[Q:1/4=100] [CE]2 | [Ec]4 [DEB][CEA] | [A,EA]2 [EB]2 [Ec]2 | [Ed]2 [B,EG]2 [DEB]2 | %4
 [CEA]4 [A,CE]2 | [A,DF]3 [A,EG] [A,FA]2 | [A,EA]2 [EB]2 [Ec]2 | [=Dc]2 [DF]2 [DB]2 | B4 Bc | %9
 d4 cB | c2 A2 [Ec]2 | B3 A B2 | [Ec]4 [A,EA]2 | [A,FA]3 [A,EG] [A,DF]2 | [A,CE]2 [CEA]2 [EAc]2 | %15
 [DGB]3 [CEA] [DEB]2 |[M:2/4] [CEA]4 |[M:1/4] [Ec]2 |[M:3/4] [Fd]2 [FA]2 [Fd]2 | [Ec]4 c2 | %20
 [Ge]2 B2 e2 | c4 [A,EA]2 | [A,FA]4 [A,EG][A,DF] | [A,CE]2 [CEA]2 [EAc]2 | [DGB]3 [CEA] [DEB]2 | %25
[M:2/4] [CEA]4 |] %26
V:2
 z2 z2 [A,,A,]2 | [A,,A,]4 A,,A,, | C,2 [B,,G,]2 [A,,A,]2 | [E,G,]2 E,2 E,2 | A,,4 A,,2 | %5
 D,3 D, D,2 | C,2 [B,,G,]2 [A,,A,]2 | [F,A,]2 [F,B,]2 [B,,A,]2 | [E,G,E]4 [E,E]-[E,A,E] | %9
 [E,B,E]4 [E,A,E][E,G,E] | [A,E]2 [A,CE]2 [A,,A,]2 | [E,G,E]3 [E,F,E] [E,G,E]2 | [A,,A,]4 C,2 | %13
 D,3 D, D,2 | A,,2 A,,2 A,,2 | E,3 E, E,2 |[M:2/4] A,,4 |[M:1/4] A,2 | %18
[M:3/4] [D,A,]2 [D,D]2 [D,A,]2 | [A,,A,]4 [A,E]2 | [E,B,]2 [E,G,E]2 [G,B,E]2 | [A,E]4 C,2 | %22
 D,4 D,D, | A,,2 A,,2 A,,2 | E,3 E, E,2 |[M:2/4] A,,4 |] %26
V:3
 x6 | x6 | x6 | x6 | x6 | x6 | x6 | x6 | z2 z2 .G,2 | x6 | x6 | x6 | x6 | x6 | x6 | x6 | %16
[M:2/4] x4 |[M:1/4] x2 |[M:3/4] x6 | x6 | x6 | x6 | x6 | x6 | x6 |[M:2/4] x4 |] %26

